X: 35248
T: Roscommon, The
R: reel
M: 4/4
K: Ddorian
DEFG AGFA|GE E2 cEGE|DEFG AGFA|GECD ED D2|
DEFG AGFA|GE E2 cEGE|DEFG AGFA|GECD ED D2||
dA~A2 defd|eg~g2 aege|dA~A2 defd|egfe defe|
dA~A2 defd|eg~g2 afge|~f3d ~e3d|cAGE DEFG||
A2AG ABcA|GE~E2 AEGE|DEFG A2cA|GECD ED D2|
A2AG A2cA|GE~E2 AEGE|DEFG A2cA|GECD ED D2||

